en/_assets/console-icons/cloud-shell.svg

<svg width="18" height="18" viewBox="0 0 18 18" fill="none" xmlns="http://www.w3.org/2000/svg">
<path fill-rule="evenodd" clip-rule="evenodd" d="M13.4484 3.95141H4.5547C3.63374 3.95141 2.88713 4.70485 2.88713 5.63428V12.3658C2.88713 13.2952 3.63374 14.0486 4.5547 14.0486H13.4484C14.3694 14.0486 15.116 13.2952 15.116 12.3658V5.63428C15.116 4.70485 14.3694 3.95141 13.4484 3.95141ZM4.5547 2.26854C2.71276 2.26854 1.21957 3.77544 1.21957 5.63428V12.3658C1.21957 14.2246 2.71276 15.7315 4.5547 15.7315H13.4484C15.2903 15.7315 16.7835 14.2246 16.7835 12.3658V5.63428C16.7835 3.77544 15.2903 2.26854 13.4484 2.26854H4.5547ZM5.07685 11.8388C4.75123 11.5102 4.75123 10.9775 5.07685 10.6489L6.71069 9.00002L5.07685 7.35117C4.75123 7.02258 4.75123 6.48981 5.07685 6.1612C5.40245 5.83261 5.93038 5.83261 6.256 6.1612L8.47942 8.40503C8.80503 8.73363 8.80503 9.2664 8.47942 9.59499L6.256 11.8388C5.93038 12.1674 5.40245 12.1674 5.07685 11.8388ZM9.83533 10.6829C9.37486 10.6829 9.00155 11.0596 9.00155 11.5243C9.00155 11.989 9.37486 12.3658 9.83533 12.3658H12.6146C13.0751 12.3658 13.4484 11.989 13.4484 11.5243C13.4484 11.0596 13.0751 10.6829 12.6146 10.6829H9.83533Z" fill="black" fill-opacity="0.85"/>
</svg>

<svg xmlns="http://www.w3.org/2000/svg" width="18" height="18" fill="none" viewBox="0 0 18 18">
    <path fill="#000" fill-opacity=".85" fill-rule="evenodd" d="M13.448 3.951H4.555c-.921 0-1.668.754-1.668 1.683v6.732c0 .93.747 1.683 1.668 1.683h8.893c.921 0 1.668-.754 1.668-1.683V5.634c0-.93-.747-1.683-1.668-1.683ZM4.555 2.27c-1.842 0-3.335 1.506-3.335 3.365v6.732c0 1.859 1.493 3.366 3.335 3.366h8.893c1.842 0 3.335-1.507 3.335-3.366V5.634c0-1.859-1.493-3.365-3.335-3.365H4.555Zm.522 9.57a.847.847 0 0 1 0-1.19L6.71 9 5.077 7.351a.847.847 0 0 1 0-1.19.828.828 0 0 1 1.179 0l2.223 2.244a.847.847 0 0 1 0 1.19l-2.223 2.244a.828.828 0 0 1-1.18 0Zm4.758-1.156a.838.838 0 0 0-.833.841c0 .465.373.842.833.842h2.78c.46 0 .833-.377.833-.842a.838.838 0 0 0-.833-.841h-2.78Z" clip-rule="evenodd"/>
</svg>
